_inc/images/buttons/playstation_color/r.svg

<svg enable-background="new 0 0 20 12.473" height="12.473" viewBox="0 0 20 12.473" width="20" xmlns="http://www.w3.org/2000/svg" xmlns:xlink="http://www.w3.org/1999/xlink"><linearGradient id="a" gradientUnits="userSpaceOnUse" x1="10" x2="10" y1="0" y2="11.1632"><stop offset="0" stop-color="#5b5b5f"/><stop offset=".0626" stop-color="#535356"/><stop offset=".3018" stop-color="#373739"/><stop offset=".5397" stop-color="#242425"/><stop offset=".7739" stop-color="#181818"/><stop offset="1" stop-color="#141414"/></linearGradient><linearGradient id="b" gradientUnits="userSpaceOnUse" x1="10" x2="10" y1="0" y2="12.4727"><stop offset="0" stop-color="#5b5b5f"/><stop offset=".0155" stop-color="#58585b"/><stop offset=".1488" stop-color="#3f3f41"/><stop offset=".296" stop-color="#2c2c2d"/><stop offset=".4624" stop-color="#1e1e1f"/><stop offset=".6643" stop-color="#161617"/><stop offset="1" stop-color="#141414"/></linearGradient><path d="m20 9.91c0 1.415-1.147 2.563-2.563 2.563h-14.875c-1.416 0-2.562-1.148-2.562-2.563v-7.347c0-1.416 1.146-2.563 2.562-2.563h14.876c1.415 0 2.562 1.147 2.562 2.563z" fill="url(#a)"/><path d="m17.438 1.512c.58 0 1.051.472 1.051 1.051v7.347c0 .58-.471 1.051-1.051 1.051h-14.876c-.579 0-1.05-.471-1.05-1.051v-7.347c0-.579.471-1.051 1.05-1.051zm0-1.512h-14.876c-1.416 0-2.562 1.147-2.562 2.563v7.347c0 1.415 1.146 2.563 2.562 2.563h14.876c1.415 0 2.563-1.147 2.563-2.563v-7.347c-.001-1.416-1.148-2.563-2.563-2.563z" fill="url(#b)"/><g fill="#fff"><path d="m10.988 5.856c.201-.326.303-.705.303-1.126 0-.317-.058-.618-.17-.895-.114-.277-.279-.521-.492-.722-.211-.199-.465-.356-.756-.469-.289-.111-.614-.167-.966-.167h-3.813v7.52h1.83v-2.797h1.402c.473 0 .67.092.754.169.117.11.176.311.176.599v2.028h1.842v-2.211c0-.457-.076-.796-.229-1.037-.093-.146-.222-.27-.388-.369.207-.134.376-.309.507-.523zm-4.064-1.765h1.736c.314 0 .537.069.66.207.131.145.194.328.194.562 0 .226-.064.405-.197.55-.128.138-.366.207-.711.207h-1.682z"/><path d="m13.406 2.477-.018.17c-.02.187-.06.351-.119.485-.057.127-.137.23-.245.315-.11.087-.259.152-.438.196-.192.046-.438.07-.73.07h-.188v1.347h1.463v4.937h1.776v-7.52z"/></g></svg>

<svg xmlns="http://www.w3.org/2000/svg" width="20" height="12.473" viewBox="0 0 20 12.473"><linearGradient id="a" x1="10" x2="10" y1="0" y2="11.163" gradientUnits="userSpaceOnUse"><stop offset="0" stop-color="#5b5b5f"/><stop offset=".063" stop-color="#535356"/><stop offset=".302" stop-color="#373739"/><stop offset=".54" stop-color="#242425"/><stop offset=".774" stop-color="#181818"/><stop offset="1" stop-color="#141414"/></linearGradient><linearGradient id="b" x1="10" x2="10" y1="0" y2="12.473" gradientUnits="userSpaceOnUse"><stop offset="0" stop-color="#5b5b5f"/><stop offset=".015" stop-color="#58585b"/><stop offset=".149" stop-color="#3f3f41"/><stop offset=".296" stop-color="#2c2c2d"/><stop offset=".462" stop-color="#1e1e1f"/><stop offset=".664" stop-color="#161617"/><stop offset="1" stop-color="#141414"/></linearGradient><path fill="url(#a)" d="M20 9.91a2.563 2.563 0 0 1-2.563 2.563H2.562A2.56 2.56 0 0 1 0 9.91V2.563A2.56 2.56 0 0 1 2.562 0h14.876A2.56 2.56 0 0 1 20 2.563z"/><path fill="url(#b)" d="M17.438 1.512c.58 0 1.051.472 1.051 1.051V9.91c0 .58-.471 1.051-1.051 1.051H2.562c-.579 0-1.05-.471-1.05-1.051V2.563c0-.579.471-1.051 1.05-1.051zm0-1.512H2.562A2.56 2.56 0 0 0 0 2.563V9.91a2.56 2.56 0 0 0 2.562 2.563h14.876a2.563 2.563 0 0 0 2.563-2.563V2.563A2.564 2.564 0 0 0 17.438 0"/><path fill="#fff" d="M10.988 5.856c.201-.326.303-.705.303-1.126 0-.317-.058-.618-.17-.895a2.1 2.1 0 0 0-.492-.722 2.3 2.3 0 0 0-.756-.469 2.7 2.7 0 0 0-.966-.167H5.094v7.52h1.83V7.2h1.402c.473 0 .67.092.754.169q.176.166.176.599v2.028h1.842V7.785c0-.457-.076-.796-.229-1.037a1.15 1.15 0 0 0-.388-.369q.31-.202.507-.523M6.924 4.091H8.66c.314 0 .537.069.66.207.131.145.194.328.194.562a.77.77 0 0 1-.197.55q-.193.207-.711.207H6.924zm6.482-1.614-.018.17q-.03.282-.119.485a.8.8 0 0 1-.245.315c-.11.087-.259.152-.438.196a3.2 3.2 0 0 1-.73.07h-.188V5.06h1.463v4.937h1.776v-7.52z"/></svg>
